packages/core/src/svgs/krl.svg

<svg width="24" height="24" viewBox="0 0 24 24" fill="none" xmlns="http://www.w3.org/2000/svg">
<g clip-path="url(#clip0_31_12850)">
<path d="M0 0H24V24H0V0Z" fill="#5B4A84"/>
<path d="M4.28571 12.0002H3.48857L3.88286 10.7145H4.28571V9.25735H5.57143V11.6574L7.28571 10.2859H8.57143V10.7145L6.71571 12.3216L8.57143 14.1731V14.5716H7.28571L6.07714 13.3074L5.57143 13.6759V14.5716H4.28571V13.7145H3L3.39429 12.4288H4.28571V12.0002ZM12.1157 11.5716V10.2859H11.4771C11.0571 10.2859 10.5214 10.4874 10.2857 10.9374V10.2859H9V14.5716H10.2857V12.3216C10.29 11.5202 11.1171 11.5716 12.1157 11.5716ZM13.0629 15.4288C14.16 15.0688 14.7471 14.4388 15.24 13.4788C15.45 13.0802 15.5914 12.5788 15.7886 12.0388C14.4514 13.2816 14.6014 13.2816 12.66 14.3831L13.0629 15.4288ZM14.3571 12.3816L13.7143 10.2859H12.4286C12.5871 10.6845 13.4914 13.4059 13.4914 13.5474C14.9229 13.0502 15.7929 11.8674 15.8143 11.8545C15.9771 11.3916 16.1271 10.8002 16.2857 10.2859H15C14.7814 11.1002 14.6271 11.7945 14.3571 12.3816ZM16.7143 9.42878H18V14.5716H16.7143V9.42878ZM18.4286 8.14307H19.7143V14.5716H18.4286V8.14307Z" fill="white"/>
</g>
<defs>
<clipPath id="clip0_31_12850">
<rect width="24" height="24" fill="white"/>
</clipPath>
</defs>
</svg>

<svg xmlns="http://www.w3.org/2000/svg" width="24" height="24" fill="none" viewBox="0 0 24 24"><g clip-path="url(#a)"><path fill="#5B4A84" d="M0 0h24v24H0z"/><path fill="#fff" d="M4.286 12h-.797l.394-1.286h.403V9.257H5.57v2.4l1.715-1.371H8.57v.428l-1.855 1.608 1.855 1.851v.399H7.286l-1.209-1.265-.506.369v.896H4.286v-.857H3l.394-1.286h.892zm7.83-.428v-1.286h-.639c-.42 0-.956.201-1.191.651v-.651H9v4.286h1.286v-2.25c.004-.802.831-.75 1.83-.75m.947 3.857c1.097-.36 1.684-.99 2.177-1.95.21-.399.351-.9.549-1.44-1.338 1.243-1.188 1.243-3.129 2.344zm1.294-3.047-.643-2.096H12.43c.158.399 1.062 3.12 1.062 3.261 1.432-.497 2.302-1.68 2.323-1.693.163-.462.313-1.054.472-1.568H15c-.219.814-.373 1.508-.643 2.096m2.357-2.953H18v5.143h-1.286zm1.715-1.286h1.285v6.429H18.43z"/></g><defs><clipPath id="a"><path fill="#fff" d="M0 0h24v24H0z"/></clipPath></defs></svg>
